icons/circle/48/WoW.svg

<svg xmlns="http://www.w3.org/2000/svg" viewBox="0 0 48 48">
 <defs>
  <linearGradient id="linearGradient3764" y1="47" x2="0" y2="1" gradientUnits="userSpaceOnUse">
   <stop style="stop-color:#d6971e;stop-opacity:1"/>
   <stop offset="1" style="stop-color:#e1a126;stop-opacity:1"/>
  </linearGradient>
 </defs>
 <g>
  <path d="m 36.31 5 c 5.859 4.062 9.688 10.831 9.688 18.5 c 0 12.426 -10.07 22.5 -22.5 22.5 c -7.669 0 -14.438 -3.828 -18.5 -9.688 c 1.037 1.822 2.306 3.499 3.781 4.969 c 4.085 3.712 9.514 5.969 15.469 5.969 c 12.703 0 23 -10.298 23 -23 c 0 -5.954 -2.256 -11.384 -5.969 -15.469 c -1.469 -1.475 -3.147 -2.744 -4.969 -3.781 z m 4.969 3.781 c 3.854 4.113 6.219 9.637 6.219 15.719 c 0 12.703 -10.297 23 -23 23 c -6.081 0 -11.606 -2.364 -15.719 -6.219 c 4.16 4.144 9.883 6.719 16.219 6.719 c 12.703 0 23 -10.298 23 -23 c 0 -6.335 -2.575 -12.06 -6.719 -16.219 z" style="opacity:0.05"/>
  <path d="m 41.28 8.781 c 3.712 4.085 5.969 9.514 5.969 15.469 c 0 12.703 -10.297 23 -23 23 c -5.954 0 -11.384 -2.256 -15.469 -5.969 c 4.113 3.854 9.637 6.219 15.719 6.219 c 12.703 0 23 -10.298 23 -23 c 0 -6.081 -2.364 -11.606 -6.219 -15.719 z" style="opacity:0.1"/>
  <path d="m 31.25 2.375 c 8.615 3.154 14.75 11.417 14.75 21.13 c 0 12.426 -10.07 22.5 -22.5 22.5 c -9.708 0 -17.971 -6.135 -21.12 -14.75 a 23 23 0 0 0 44.875 -7 a 23 23 0 0 0 -16 -21.875 z" style="opacity:0.2"/>
 </g>
 <g>
  <path d="m 7.799 7.678 c -4.198 4.167 -6.799 9.94 -6.799 16.322 c 0 6.364 2.585 12.12 6.762 16.287 l 32.496 -0.018 c 4.166 -4.163 6.742 -9.915 6.742 -16.27 c 0 -6.323 -2.553 -12.05 -6.682 -16.205 l -32.52 -0.117 z" style="fill:url(#linearGradient3764);fill-opacity:1"/>
  <path d="m 24 1 c -6.326 0 -12.05 2.555 -16.213 6.688 c 2.52 2.482 3.331 3.279 6.709 6.611 c -2.773 2.722 -4.496 6.508 -4.496 10.701 c 0 4.163 1.697 7.929 4.436 10.646 c -2.547 2.531 -3.275 3.256 -5.639 5.605 c 4.054 3.575 9.373 5.748 15.203 5.748 c 6.348 0 12.09 -2.571 16.256 -6.729 c -2.072 -2.068 -3.143 -3.136 -4.662 -4.652 c 2.722 -2.715 4.406 -6.47 4.406 -10.619 c 0 -4.108 -1.654 -7.826 -4.328 -10.535 c 2.985 -2.991 3.791 -3.817 5.602 -5.643 c -4.215 -4.793 -10.388 -7.822 -17.273 -7.822 z" style="fill:#000;opacity:0.1;fill-opacity:1"/>
  <path d="m 24 1 c -6.321 0 -12.04 2.551 -16.201 6.678 c 5.952 5.861 13.07 12.875 16.432 16.232 c 7.896 -7.881 12.556 -12.559 16.09 -16.12 c -4.167 -4.195 -9.938 -6.795 -16.318 -6.795 z" style="fill:#fcf8a6;fill-opacity:1"/>
  <path d="m 24.05 24.1 c -3.724 3.714 -10.409 10.35 -16.289 16.189 c 4.16 4.148 9.899 6.713 16.238 6.713 c 6.349 0 12.1 -2.572 16.258 -6.73 c -2.074 -2.068 -1.137 -1.131 -16.207 -16.17 z" style="fill:#e8c55b;fill-opacity:1"/>
 </g>
 <g>
  <g>
   <g transform="translate(1,1)">
    <g style="opacity:0.1">
     <!-- color: #e1a126 -->
     <g>
      <path d="m 30 18 l -3 -1 l 6 0 m -3 1" style="fill:#000;fill-opacity:1;stroke:none;fill-rule:nonzero"/>
     </g>
    </g>
   </g>
  </g>
 </g>
 <g>
  <g>
   <!-- color: #e1a126 -->
   <g>
    <path d="M 39,24 C 39,32.285 32.285,39 24,39 15.715,39 9,32.285 9,24 9,15.715 15.715,9 24,9 c 8.285,0 15,6.715 15,15 m 0,0" style="fill:#d5a426;fill-opacity:1;stroke:none;fill-rule:nonzero"/>
    <path d="m 36.496 23.977 c 0 6.875 -5.574 12.445 -12.449 12.445 -6.871 0 -12.445 -5.57 -12.445 -12.445 0 -6.875 5.574 -12.445 12.445 -12.445 6.875 0 12.449 5.57 12.449 12.445 m 0 0" style="fill:#2d2d2d;fill-opacity:1;stroke:none;fill-rule:nonzero"/>
    <path d="m 16,18 c -2,-2 8.672,-0.242 2,0 L 19.605,31.508 18,33 c 1.656,-0.004 3.34,0.031 5,0 -0.449,-1.078 -0.902,-1.434 -1,-2 l 2,-5 1.352,5.66 -0.188,1.215 C 26.977,32.863 28.441,33.008 30,33 29.605,32.602 29.211,31.902 28.867,31.445 L 31.238,18.586 32,17 28,17 c 0.41,0.145 0.699,0.699 1,1 L 26,29 C 24.918,24.621 23.953,18.012 24,17 L 21.812,27.871 19.73,18.687 C 19.542,17.941 21,15.999 20,17.999 m -4,0" style="fill:#d5a426;fill-opacity:1;stroke:none;fill-rule:nonzero"/>
    <path d="m 15,17 3,1 2.75,13.727 L 18,33 19,31 16,19 m -1,-2" style="fill:#f9df5b;fill-opacity:1;stroke:none;fill-rule:nonzero"/>
    <path d="m 20.699,31.699 0.801,0 L 23,33 18,33 m 2.699,-1.301" style="fill:#a54c1b;fill-opacity:1;stroke:none;fill-rule:nonzero"/>
    <path d="M 21.5,31.699 22,27 l -2,-8 1,-2 -3,1 2.699,13.699 m 0.801,0" style="fill:#d59326;fill-opacity:1;stroke:none;fill-rule:nonzero"/>
    <path d="m 24,17 -2,10 -0.5,4.699 2.801,-10.922 M 24,17" style="fill:#fae360;fill-opacity:1;stroke:none;fill-rule:nonzero"/>
    <path d="m 24,17 2,10 0.5,4.699 L 23.996,21 M 24,17" style="fill:#bf6f1f;fill-opacity:1;stroke:none;fill-rule:nonzero"/>
    <path d="M 23,33 21.5,31.699 24,21 l 0,5 -1.301,5.699 M 23,33" style="fill:#d59326;fill-opacity:1;stroke:none;fill-rule:nonzero"/>
    <path d="M 33,17 30,18 27.301,31.699 30,33 29,31 32,19 m 1,-2" style="fill:#b4621f;fill-opacity:1;stroke:none;fill-rule:nonzero"/>
    <path d="m 27.301,31.699 -0.801,0 L 25,33 l 5,0 m -2.699,-1.301" style="fill:#a64d1a;fill-opacity:1;stroke:none;fill-rule:nonzero"/>
    <path d="M 26.5,31.699 26,27 l 2,-8 -1,-2 3,1 -2.699,13.699 m -0.801,0" style="fill:#f3cf45;fill-opacity:1;stroke:none;fill-rule:nonzero"/>
    <path d="M 25,33 26.5,31.699 24,21 l 0,5 1.301,5.699 M 25,33" style="fill:#f8d24b;fill-opacity:1;stroke:none;fill-rule:nonzero"/>
    <path d="m 18 18 3 -1 -6 0 m 3 1" style="fill:#fffbce;fill-opacity:1;stroke:none;fill-rule:nonzero"/>
    <path d="m 30 18 -3 -1 6 0 m -3 1" style="fill:#fcefa2;fill-opacity:1;stroke:none;fill-rule:nonzero"/>
   </g>
  </g>
 </g>
 <g>
  <path d="m 40.03 7.531 c 3.712 4.084 5.969 9.514 5.969 15.469 0 12.703 -10.297 23 -23 23 c -5.954 0 -11.384 -2.256 -15.469 -5.969 4.178 4.291 10.01 6.969 16.469 6.969 c 12.703 0 23 -10.298 23 -23 0 -6.462 -2.677 -12.291 -6.969 -16.469 z" style="opacity:0.1"/>
 </g>
</svg>

<svg xmlns="http://www.w3.org/2000/svg" viewBox="0 0 48 48">
  <defs>
    <linearGradient id="a" y1="47" x2="0" y2="1" gradientUnits="userSpaceOnUse">
      <stop stop-color="#d6971e"/>
      <stop offset="1" stop-color="#e1a126"/>
    </linearGradient>
  </defs>
  <path d="M36.31 5c5.859 4.062 9.688 10.831 9.688 18.5 0 12.426-10.07 22.5-22.5 22.5-7.669 0-14.438-3.828-18.5-9.688a23.24 23.24 0 0 0 3.781 4.969 22.923 22.923 0 0 0 15.469 5.969c12.703 0 23-10.298 23-23a22.92 22.92 0 0 0-5.969-15.469A23.216 23.216 0 0 0 36.31 5zm4.969 3.781A22.911 22.911 0 0 1 47.498 24.5c0 12.703-10.297 23-23 23a22.909 22.909 0 0 1-15.719-6.219C12.939 45.425 18.662 48 24.998 48c12.703 0 23-10.298 23-23 0-6.335-2.575-12.06-6.719-16.219z" opacity=".05"/>
  <path d="M41.28 8.781a22.923 22.923 0 0 1 5.969 15.469c0 12.703-10.297 23-23 23A22.92 22.92 0 0 1 8.78 41.281 22.911 22.911 0 0 0 24.499 47.5c12.703 0 23-10.298 23-23A22.909 22.909 0 0 0 41.28 8.781z" opacity=".1"/>
  <path d="M31.25 2.375C39.865 5.529 46 13.792 46 23.505c0 12.426-10.07 22.5-22.5 22.5-9.708 0-17.971-6.135-21.12-14.75a23 23 0 0 0 44.875-7 23 23 0 0 0-16-21.875z" opacity=".2"/>
  <path d="M7.799 7.678A22.926 22.926 0 0 0 1 24c0 6.364 2.585 12.12 6.762 16.287l32.496-.018A22.927 22.927 0 0 0 47 23.999c0-6.323-2.553-12.05-6.682-16.205l-32.52-.117z" fill="url(#a)"/>
  <path d="M24 1C17.674 1 11.95 3.555 7.787 7.688c2.52 2.482 3.331 3.279 6.709 6.611A14.946 14.946 0 0 0 10 25c0 4.163 1.697 7.929 4.436 10.646l-5.639 5.605A22.907 22.907 0 0 0 24 46.999c6.348 0 12.09-2.571 16.256-6.729l-4.662-4.652A14.95 14.95 0 0 0 40 24.999c0-4.108-1.654-7.826-4.328-10.535 2.985-2.991 3.791-3.817 5.602-5.643C37.059 4.028 30.886.999 24.001.999z" opacity=".1"/>
  <path d="M24 1C17.679 1 11.96 3.551 7.799 7.678c5.952 5.861 13.07 12.875 16.432 16.232a4682.805 4682.805 0 0 0 16.09-16.12A22.929 22.929 0 0 0 24.003.995z" fill="#fcf8a6"/>
  <path d="M24.05 24.1c-3.724 3.714-10.409 10.35-16.289 16.189a22.925 22.925 0 0 0 16.238 6.713c6.349 0 12.1-2.572 16.258-6.73-2.074-2.068-1.137-1.131-16.207-16.17z" fill="#e8c55b"/>
  <g>
    <path d="M31 19l-3-1h6m-3 1" opacity=".1"/>
  </g>
  <g>
    <path d="M39 24c0 8.285-6.715 15-15 15S9 32.285 9 24 15.715 9 24 9s15 6.715 15 15m0 0" fill="#d5a426"/>
    <path d="M36.496 23.977c0 6.875-5.574 12.445-12.449 12.445-6.871 0-12.445-5.57-12.445-12.445s5.574-12.445 12.445-12.445c6.875 0 12.449 5.57 12.449 12.445m0 0" fill="#2d2d2d"/>
    <path d="M16 18c-2-2 8.672-.242 2 0l1.605 13.508L18 33c1.656-.004 3.34.031 5 0-.449-1.078-.902-1.434-1-2l2-5 1.352 5.66-.188 1.215c1.813-.012 3.277.133 4.836.125-.395-.398-.789-1.098-1.133-1.555l2.371-12.859L32 17h-4c.41.145.699.699 1 1l-3 11c-1.082-4.379-2.047-10.988-2-12l-2.188 10.871-2.082-9.184c-.188-.746 1.27-2.688.27-.688m-4 0" fill="#d5a426"/>
    <path d="M15 17l3 1 2.75 13.727L18 33l1-2-3-12m-1-2" fill="#f9df5b"/>
    <path d="M20.699 31.699h.801L23 33h-5m2.699-1.301" fill="#a54c1b"/>
    <path d="M21.5 31.699L22 27l-2-8 1-2-3 1 2.699 13.699m.801 0" fill="#d59326"/>
    <path d="M24 17l-2 10-.5 4.699 2.801-10.922M24 17" fill="#fae360"/>
    <path d="M24 17l2 10 .5 4.699L23.996 21M24 17" fill="#bf6f1f"/>
    <path d="M23 33l-1.5-1.301L24 21v5l-1.301 5.699M23 33" fill="#d59326"/>
    <path d="M33 17l-3 1-2.699 13.699L30 33l-1-2 3-12m1-2" fill="#b4621f"/>
    <path d="M27.301 31.699H26.5L25 33h5m-2.699-1.301" fill="#a64d1a"/>
    <path d="M26.5 31.699L26 27l2-8-1-2 3 1-2.699 13.699m-.801 0" fill="#f3cf45"/>
    <path d="M25 33l1.5-1.301L24 21v5l1.301 5.699M25 33" fill="#f8d24b"/>
    <path d="M18 18l3-1h-6m3 1" fill="#fffbce"/>
    <path d="M30 18l-3-1h6m-3 1" fill="#fcefa2"/>
  </g>
  <g>
    <path d="M40.03 7.531A22.922 22.922 0 0 1 45.999 23c0 12.703-10.297 23-23 23A22.92 22.92 0 0 1 7.53 40.031C11.708 44.322 17.54 47 23.999 47c12.703 0 23-10.298 23-23 0-6.462-2.677-12.291-6.969-16.469z" opacity=".1"/>
  </g>
</svg>
